X: 9987
T: Devil's Polska, The
R: waltz
M: 3/4
K: Edorian
|:E2 ed Bd|cB AB GF|EG EF E^D|EF GA B2|
E2 ed Bd|cB AB GF|EG EF E^D|E8:|
|:EG EF E^D|EG EF E^D|EG EF E^D|EF GA B2|
EG EF E^D|EG EF E^D|EG EF E^D|E8:|

